X:99
T:Duett by Wragg. Le4.099
M:2/4
L:1/8
Q:1/4=100
B:L.Leadley MS#4 c1850
Z:Village Music Project, 2016 Ruairidh Greig
K:G
(GG/A/) (BB/c/)|d/(g/f/g/)d2|(e/g/f/g/) (d/g/f/g/)|c/B/A/G/ AD|
(GG/A/) (BB/c/)|(d/g/f/g/) {a}(gf/e/)|dg b/a/g/f/|g2g2:|
|:d(d/c/) BB|e(e/d/) c z|c(c/B/) AA|(d/e/d/c/) B z|
(BB/A/) Gg|c(c/B/) Aa|(ba/b/) a(f/a/)|g/e/d/^c/Hd2:|
|:gg aa|bb/c'/|bd'bg|ea fd|
(gg) (aa)|bb c'2|bgaf|g>ag2:|
|:(d>B) GG|(e>c) AA|d>B GG|FGAz|
d>B GG|eceg|fdef|Hd3z:|
|:GG (F/G/)(F/G/)|A-AA2|d>cBG|FA G/F/E/D/|
GG F/G/F/G/|A-AA2|d>cBG|DFG2:|
gg (f/g/)(f/g/)|aaa2|d'e'ba|ea (g/f/).e/.d/|
gg (f/g/)(f/g/)|aaa2|d'e'bg|b/a/g/f/g2:|
|:ee (c/d/)(e/c/)|dd Bz|cc (A/B/)(c/A/)|F/G/A/F/ Dz|
ee (c/d/)(e/c/)|ddBz|(A/B/)(A/B/) c/B/A/G/|d2z2:|
|:e2ee|e/d/e/f/g2|(3f/g/f/ (3e/f/e/ .d.g|(3e/f/e/ (3c/d/c/c2|
e2ee|(e/d/e/f/)g2|(3f/g/f/ (3e/f/e/ dg|c4:|
|:d2^c/d/f/d/|B2G2|c2(eg)|d3z/d//|
d2(^c/d/f/d/)|B2G2|c2(eg)|d3^d|
e2ee|(e/d/e/f/)g2|f/d/e/c/ d/G/g/f/|e/c/d/B/ c/e/g/f/|
e2ee|(e/d/e/f/)g2|(f//g//a//f//) (e//f//g//e//) .d.g|c4:|

